svg/emoji_u1f63f.svg

<?xml version="1.0" encoding="UTF-8" standalone="no"?>
<svg
   xmlns:dc="http://purl.org/dc/elements/1.1/"
   xmlns:cc="http://creativecommons.org/ns#"
   xmlns:rdf="http://www.w3.org/1999/02/22-rdf-syntax-ns#"
   xmlns:svg="http://www.w3.org/2000/svg"
   xmlns="http://www.w3.org/2000/svg"
   xmlns:sodipodi="http://sodipodi.sourceforge.net/DTD/sodipodi-0.dtd"
   xmlns:inkscape="http://www.inkscape.org/namespaces/inkscape"
   width="128"
   height="128"
   style="enable-background:new 0 0 128 128;"
   version="1.1"
   id="svg10"
   sodipodi:docname="emoji_u1f63f.svg"
   inkscape:version="0.92+devel unknown">
  <metadata
     id="metadata16">
    <rdf:RDF>
      <cc:Work
         rdf:about="">
        <dc:format>image/svg+xml</dc:format>
        <dc:type
           rdf:resource="http://purl.org/dc/dcmitype/StillImage" />
      </cc:Work>
    </rdf:RDF>
  </metadata>
  <defs
     id="defs14" />
  <sodipodi:namedview
     pagecolor="#ffffff"
     bordercolor="#666666"
     inkscape:document-rotation="0"
     borderopacity="1"
     objecttolerance="10"
     gridtolerance="10"
     guidetolerance="10"
     inkscape:pageopacity="0"
     inkscape:pageshadow="2"
     inkscape:window-width="1680"
     inkscape:window-height="986"
     id="namedview12"
     showgrid="false"
     inkscape:zoom="5.4453125"
     inkscape:cx="33.711266"
     inkscape:cy="40.807783"
     inkscape:window-x="0"
     inkscape:window-y="27"
     inkscape:window-maximized="1"
     inkscape:current-layer="svg10" />
  <path
     style="fill:#e9c35c;fill-opacity:1"
     d="M 114.72656 21.478516 C 107.05148 21.572715 93.751719 30.350313 88.730469 34.039062 C 86.500469 35.659062 84.589453 37.050703 82.939453 38.220703 C 76.779453 36.360703 70.100469 35.390625 63.480469 35.390625 C 56.750469 35.380625 49.960937 36.390547 43.710938 38.310547 C 41.790937 37.190547 39.489531 35.819922 36.769531 34.169922 C 30.249531 30.199922 10.540937 19.599766 5.7109375 25.759766 C -0.0090625 33.069766 8.909375 55.980234 13.359375 66.240234 C 11.899375 70.070234 10.990469 74.019219 10.730469 77.949219 C 10.660469 78.899219 10.629375 79.849063 10.609375 80.789062 L 3.4101562 79.720703 C 2.2501563 79.570703 1.1602344 80.349766 0.99023438 81.509766 C 0.82023437 82.679766 1.6190625 83.769687 2.7890625 83.929688 L 10.710938 85.109375 C 10.830936 86.989375 11.059922 88.859453 11.419922 90.689453 L 2.9199219 92.220703 C 1.7599219 92.430703 0.9892187 93.539219 1.1992188 94.699219 C 1.3892187 95.719219 2.2807813 96.449219 3.3007812 96.449219 C 3.4207813 96.449219 3.5496875 96.439922 3.6796875 96.419922 L 12.519531 94.830078 C 13.169531 96.800078 14.029609 98.709065 15.099609 100.53906 L 6.6503906 103.2207 C 5.5303906 103.5807 4.8997656 104.78039 5.2597656 105.90039 C 5.5497656 106.81039 6.3890625 107.38086 7.2890625 107.38086 C 7.4990625 107.38086 7.7194531 107.3493 7.9394531 107.2793 L 17.630859 104.19922 C 19.190859 106.11922 21.039766 107.93008 23.259766 109.58008 C 29.309766 114.10008 36.829844 117.15055 44.589844 118.81055 C 47.539844 119.44055 55.150625 120.91016 63.140625 120.91016 C 71.130625 120.91016 79.489453 119.44055 82.439453 118.81055 C 90.189453 117.15055 97.719532 114.10008 103.76953 109.58008 C 106.07953 107.85008 107.99984 105.95945 109.58984 103.93945 L 120.08984 107.26953 C 120.29984 107.33953 120.52023 107.36914 120.74023 107.36914 C 121.64023 107.36914 122.47953 106.80063 122.76953 105.89062 C 123.11953 104.77062 122.50086 103.56094 121.38086 103.21094 L 112.07031 100.25 C 113.09031 98.45 113.90906 96.570625 114.53906 94.640625 L 124.33984 96.410156 C 124.46984 96.430156 124.5907 96.439453 124.7207 96.439453 C 125.7307 96.439453 126.63031 95.709453 126.82031 94.689453 C 127.02031 93.559453 126.24984 92.450234 125.08984 92.240234 L 115.59961 90.529297 C 115.93961 88.809297 116.14953 87.049531 116.26953 85.269531 L 125.2207 83.939453 C 126.3907 83.769453 127.18953 82.679531 127.01953 81.519531 C 126.84953 80.359531 125.76984 79.580469 124.58984 79.730469 L 116.36914 80.949219 C 116.34914 79.949219 116.32 78.949219 116.25 77.949219 C 116 74.229219 115.16984 70.479844 113.83984 66.839844 C 116.77984 58.529844 125.9707 30.470703 118.9707 22.970703 C 117.96945 21.898203 116.49773 21.456777 114.72656 21.478516 z M 104.52539 95.402344 C 104.52195 96.158906 104.4418 96.919687 104.2793 97.679688 C 104.44166 96.920337 104.52183 96.158269 104.52539 95.402344 z "
     id="path6" />
  <path
     style="fill:#ffffff"
     d="M 96.580078 82.990234 C 95.380078 83.080234 95.539531 85.099688 95.519531 85.929688 C 95.499531 86.549687 95.529687 87.229609 95.429688 87.849609 C 95.119688 89.809609 94.149219 92.409688 93.699219 94.929688 C 93.179219 97.799688 93.340156 100.56945 95.910156 102.18945 C 99.560156 104.49945 103.4793 101.35969 104.2793 97.679688 C 104.9293 94.639687 104.24922 91.569688 102.69922 88.929688 C 101.72922 87.289687 100.5207 85.290156 98.970703 84.160156 C 98.330703 83.710156 97.420078 82.920234 96.580078 82.990234 z "
     id="ellipse2" />
  <path
     style="fill:#2f2f2f;stroke-width:1.00004196"
     d="M 76.527344 70.878906 C 76.251875 70.859688 75.966953 70.895234 75.689453 70.990234 C 74.579453 71.370234 73.979375 72.579219 74.359375 73.699219 C 74.449375 73.959219 76.709766 80.360625 84.259766 81.890625 C 85.249766 82.090625 86.190078 82.169922 87.080078 82.169922 C 92.940078 82.169922 96.400312 78.349922 96.570312 78.169922 C 97.350313 77.299922 97.270391 75.959688 96.400391 75.179688 C 95.530391 74.399687 94.180625 74.460078 93.390625 75.330078 C 93.260625 75.470078 90.189609 78.730937 85.099609 77.710938 C 80.029609 76.690937 78.460625 72.510547 78.390625 72.310547 C 78.105625 71.478047 77.35375 70.936562 76.527344 70.878906 z M 49.748047 71.480469 C 48.922109 71.527812 48.159375 72.055859 47.859375 72.880859 C 47.789375 73.070859 46.209375 77.25 41.109375 78.25 C 36.009375 79.24 32.979375 75.950078 32.859375 75.830078 C 32.079375 74.950078 30.729609 74.860859 29.849609 75.630859 C 28.959609 76.420859 28.870391 77.760391 29.650391 78.650391 C 29.810391 78.830391 33.279453 82.710938 39.189453 82.710938 C 40.049453 82.710937 40.959688 82.619687 41.929688 82.429688 C 49.489688 80.959688 51.780859 74.580781 51.880859 74.300781 C 52.260859 73.190781 51.680078 71.989609 50.580078 71.599609 C 50.305078 71.502109 50.023359 71.464687 49.748047 71.480469 z "
     id="rect4" />
  <path
     style="opacity:1;vector-effect:none;fill:#f0c4b1;fill-opacity:1;fill-rule:evenodd;stroke:none;stroke-width:3.77952766;stroke-linecap:round;stroke-linejoin:round;stroke-miterlimit:4;stroke-dasharray:none;stroke-dashoffset:0;stroke-opacity:1"
     d="m 17.935356,60.635016 c 0,0 -26.6200374,-55.03895 18.312284,-18.814452 0,0 -12.334819,8.894995 -18.312284,18.814452 z"
     id="path5835"
     inkscape:connector-curvature="0" />
  <path
     inkscape:connector-curvature="0"
     id="path5837"
     d="m 111.4863,58.002526 c 0,0 23.20907,-53.420918 -18.716798,-16.801506 0,0 12.423908,7.747492 18.716798,16.801506 z"
     style="opacity:1;vector-effect:none;fill:#f0c4b1;fill-opacity:1;fill-rule:evenodd;stroke:none;stroke-width:3.77952766;stroke-linecap:round;stroke-linejoin:round;stroke-miterlimit:4;stroke-dasharray:none;stroke-dashoffset:0;stroke-opacity:1" />
  <path
     style="opacity:1;vector-effect:none;fill:#bb5100;fill-opacity:1;fill-rule:evenodd;stroke:none;stroke-width:3.77952766;stroke-linecap:round;stroke-linejoin:round;stroke-miterlimit:4;stroke-dasharray:none;stroke-dashoffset:0;stroke-opacity:1"
     d="M 58.154297 35.597656 C 56.603694 35.717747 55.058144 35.88901 53.525391 36.113281 C 53.852723 39.300111 55.596259 54.029212 58.154297 35.597656 z "
     id="path5819" />
  <path
     style="opacity:1;vector-effect:none;fill:#bb5100;fill-opacity:1;fill-rule:evenodd;stroke:none;stroke-width:3.77952766;stroke-linecap:round;stroke-linejoin:round;stroke-miterlimit:4;stroke-dasharray:none;stroke-dashoffset:0;stroke-opacity:1"
     d="M 70.097656 35.720703 C 71.185051 53.408818 73.947516 38.716364 74.380859 36.271484 C 72.963014 36.043862 71.53416 35.859642 70.097656 35.720703 z "
     id="path5821" />
  <path
     style="opacity:1;vector-effect:none;fill:#bb5100;fill-opacity:1;fill-rule:evenodd;stroke:none;stroke-width:3.77952766;stroke-linecap:round;stroke-linejoin:round;stroke-miterlimit:4;stroke-dasharray:none;stroke-dashoffset:0;stroke-opacity:1"
     d="M 63.480469 35.390625 C 62.986648 35.389891 62.492272 35.40581 61.998047 35.416016 C 62.17841 38.047393 64.197092 66.101325 66.544922 35.466797 C 65.523375 35.420953 64.50133 35.390625 63.480469 35.390625 z "
     id="path5823" />
</svg>

<svg xmlns="http://www.w3.org/2000/svg" width="128" height="128"><path d="M114.727 21.479c-7.676.094-20.975 8.871-25.997 12.56-2.23 1.62-4.14 3.012-5.79 4.182-6.16-1.86-12.84-2.83-19.46-2.83-6.73-.01-13.52 1-19.77 2.92-1.92-1.12-4.22-2.491-6.94-4.141-6.52-3.97-26.23-14.57-31.06-8.41-5.72 7.31 3.2 30.22 7.65 40.48-1.46 3.83-2.37 7.78-2.63 11.71-.07.95-.1 1.9-.12 2.84l-7.2-1.07c-1.16-.15-2.25.63-2.42 1.79-.17 1.17.63 2.26 1.8 2.42l7.92 1.18a43.2 43.2 0 0 0 .71 5.58l-8.5 1.53A2.133 2.133 0 0 0 1.2 94.7a2.142 2.142 0 0 0 2.1 1.75c.12 0 .25-.01.38-.03l8.84-1.59a29.79 29.79 0 0 0 2.58 5.71l-8.45 2.68c-1.12.36-1.75 1.56-1.39 2.68a2.126 2.126 0 0 0 2.68 1.38l9.69-3.08a31.136 31.136 0 0 0 5.63 5.38c6.05 4.52 13.57 7.57 21.33 9.23 2.95.63 10.56 2.1 18.55 2.1s16.35-1.47 19.3-2.1c7.75-1.66 15.28-4.71 21.33-9.23 2.31-1.73 4.23-3.62 5.82-5.64l10.5 3.33c.21.07.43.1.65.1.9 0 1.74-.57 2.03-1.48.35-1.12-.27-2.33-1.39-2.68l-9.31-2.96c1.02-1.8 1.84-3.68 2.47-5.61l9.8 1.77a2.148 2.148 0 0 0 2.48-1.72c.2-1.13-.57-2.24-1.73-2.45l-9.49-1.71c.34-1.72.55-3.48.67-5.26l8.95-1.33a2.131 2.131 0 0 0 1.8-2.42c-.17-1.16-1.25-1.94-2.43-1.79l-8.22 1.22c-.02-1-.05-2-.12-3-.25-3.72-1.08-7.47-2.41-11.11 2.94-8.31 12.13-36.37 5.13-43.87-1-1.072-2.472-1.513-4.243-1.491zm-10.202 73.923z" fill="#e9c35c"/><path d="M96.58 82.99c-1.2.09-1.04 2.11-1.06 2.94-.02.62.01 1.3-.09 1.92-.31 1.96-1.28 4.56-1.73 7.08-.52 2.87-.36 5.64 2.21 7.26 3.65 2.31 7.57-.83 8.37-4.51.65-3.04-.03-6.11-1.58-8.75-.97-1.64-2.18-3.64-3.73-4.77-.64-.45-1.55-1.24-2.39-1.17z" fill="#fff"/><path d="M76.527 70.879a2.137 2.137 0 0 0-2.168 2.82c.09.26 2.35 6.662 9.9 8.192.99.2 1.931.279 2.821.279 5.86 0 9.32-3.82 9.49-4 .78-.87.7-2.21-.17-2.99-.87-.78-2.22-.72-3.01.15-.13.14-3.2 3.4-8.29 2.38-5.07-1.02-6.64-5.2-6.71-5.4a2.126 2.126 0 0 0-1.863-1.431zm-26.779.601a2.14 2.14 0 0 0-1.889 1.4c-.07.19-1.65 4.37-6.75 5.37-5.1.99-8.13-2.3-8.25-2.42-.78-.88-2.13-.97-3.01-.2-.89.79-.979 2.13-.199 3.02.16.18 3.63 4.06 9.54 4.06.86 0 1.77-.09 2.74-.28 7.56-1.47 9.85-7.85 9.95-8.13a2.129 2.129 0 0 0-2.132-2.82z" fill="#2f2f2f"/><path d="M17.935 60.635S-8.685 5.596 36.248 41.821c0 0-12.335 8.895-18.313 18.814zM111.486 58.003S134.696 4.582 92.77 41.2c0 0 12.423 7.748 18.716 16.802z" fill="#f0c4b1" fill-rule="evenodd" stroke-width="3.78" stroke-linecap="round" stroke-linejoin="round"/><path d="M58.154 35.598c-1.55.12-3.096.291-4.629.515.328 3.187 2.071 17.916 4.63-.515zM70.098 35.72c1.087 17.689 3.85 2.996 4.283.551a68.83 68.83 0 0 0-4.283-.55zM63.48 35.39c-.493 0-.988.016-1.482.026.18 2.631 2.2 30.685 4.547.05a68.379 68.379 0 0 0-3.065-.075z" fill="#bb5100" fill-rule="evenodd" stroke-width="3.78" stroke-linecap="round" stroke-linejoin="round"/></svg>
